assets/icons/ic-linkin.svg

<svg width="18" height="18" viewBox="0 0 18 18" fill="none" xmlns="http://www.w3.org/2000/svg">
<rect width="18" height="18" fill="white"/>
<path d="M13.1249 6.74924C12.4535 6.74896 11.7924 6.91504 11.2008 7.23264C11.1469 7.09046 11.0509 6.96807 10.9257 6.88172C10.8005 6.79538 10.652 6.74917 10.4999 6.74924H7.49992C7.40141 6.74919 7.30386 6.76855 7.21284 6.80622C7.12182 6.84389 7.03912 6.89913 6.96946 6.96879C6.89981 7.03844 6.84456 7.12114 6.80689 7.21216C6.76922 7.30318 6.74986 7.40074 6.74992 7.49924V16.4992C6.74986 16.5978 6.76922 16.6953 6.80689 16.7863C6.84456 16.8773 6.8998 16.96 6.96946 17.0297C7.03911 17.0994 7.12182 17.1546 7.21284 17.1923C7.30386 17.2299 7.40141 17.2493 7.49992 17.2492H10.4999C10.5984 17.2493 10.696 17.2299 10.787 17.1923C10.878 17.1546 10.9607 17.0994 11.0304 17.0297C11.1 16.96 11.1553 16.8773 11.1929 16.7863C11.2306 16.6953 11.25 16.5978 11.2499 16.4992V12.3742C11.2499 12.1753 11.3289 11.9846 11.4696 11.8439C11.6102 11.7033 11.801 11.6242 11.9999 11.6242C12.1988 11.6242 12.3896 11.7033 12.5302 11.8439C12.6709 11.9846 12.7499 12.1753 12.7499 12.3742V16.4992C12.7499 16.5978 12.7692 16.6953 12.8069 16.7863C12.8446 16.8773 12.8998 16.96 12.9695 17.0297C13.0391 17.0994 13.1218 17.1546 13.2128 17.1923C13.3039 17.2299 13.4014 17.2493 13.4999 17.2492H16.4999C16.5984 17.2493 16.696 17.2299 16.787 17.1923C16.878 17.1546 16.9607 17.0994 17.0304 17.0297C17.1 16.96 17.1553 16.8773 17.1929 16.7863C17.2306 16.6953 17.25 16.5978 17.2499 16.4992V10.8742C17.2486 9.78064 16.8135 8.73222 16.0402 7.95893C15.2669 7.18564 14.2185 6.7506 13.1249 6.74924ZM15.7499 15.7492H14.2499V12.3742C14.2499 11.7775 14.0129 11.2052 13.5909 10.7833C13.169 10.3613 12.5967 10.1242 11.9999 10.1242C11.4032 10.1242 10.8309 10.3613 10.4089 10.7833C9.98697 11.2052 9.74992 11.7775 9.74992 12.3742V15.7492H8.24992V8.24924H9.74992V8.77659C9.75001 8.93199 9.79835 9.08353 9.88825 9.21028C9.97816 9.33703 10.1052 9.43274 10.2518 9.48419C10.3985 9.53564 10.5575 9.5403 10.7069 9.49751C10.8563 9.45473 10.9887 9.36662 11.0859 9.24534C11.4224 8.81787 11.8841 8.50617 12.4064 8.35377C12.9287 8.20137 13.4856 8.21588 13.9992 8.39527C14.5129 8.57467 14.9577 8.90998 15.2715 9.35441C15.5854 9.79883 15.7526 10.3302 15.7499 10.8742V15.7492ZM5.24992 6.74924H2.24992C2.15141 6.74919 2.05386 6.76855 1.96284 6.80622C1.87182 6.84389 1.78912 6.89913 1.71946 6.96879C1.64981 7.03844 1.59456 7.12114 1.55689 7.21216C1.51922 7.30318 1.49986 7.40074 1.49992 7.49924V16.4992C1.49986 16.5978 1.51922 16.6953 1.55689 16.7863C1.59456 16.8773 1.6498 16.96 1.71946 17.0297C1.78911 17.0994 1.87182 17.1546 1.96284 17.1923C2.05386 17.2299 2.15141 17.2493 2.24992 17.2492H5.24992C5.34842 17.2493 5.44598 17.2299 5.537 17.1923C5.62802 17.1546 5.71072 17.0994 5.78038 17.0297C5.85003 16.96 5.90527 16.8773 5.94294 16.7863C5.98061 16.6953 5.99997 16.5978 5.99992 16.4992V7.49924C5.99997 7.40074 5.98061 7.30318 5.94294 7.21216C5.90527 7.12114 5.85003 7.03844 5.78037 6.96879C5.71072 6.89913 5.62802 6.84389 5.537 6.80622C5.44598 6.76855 5.34842 6.74919 5.24992 6.74924ZM4.49992 15.7492H2.99992V8.24924H4.49992V15.7492ZM3.7609 1.15649C3.43268 1.13685 3.10388 1.18417 2.79451 1.29558C2.48514 1.40699 2.20167 1.58016 1.96133 1.80456C1.72099 2.02897 1.5288 2.29991 1.39646 2.60092C1.26412 2.90193 1.19438 3.22671 1.1915 3.55551C1.18861 3.88432 1.25264 4.21027 1.37968 4.51356C1.50672 4.81684 1.69412 5.09111 1.93049 5.3197C2.16686 5.54828 2.44725 5.7264 2.75461 5.84323C3.06198 5.96005 3.38989 6.01313 3.71842 5.99924H3.73966C4.06875 6.01879 4.39838 5.97103 4.7084 5.85888C5.01841 5.74673 5.30231 5.57255 5.54273 5.34697C5.78316 5.1214 5.97506 4.84917 6.10672 4.54693C6.23838 4.24468 6.30703 3.91876 6.30848 3.58909C6.30993 3.25941 6.24414 2.93291 6.11513 2.62952C5.98613 2.32613 5.79662 2.05223 5.55818 1.82455C5.31975 1.59688 5.03739 1.42021 4.72837 1.30535C4.41935 1.19048 4.09016 1.13983 3.7609 1.15649ZM3.73966 4.49924H3.71842C3.58872 4.51499 3.45715 4.50283 3.33254 4.46356C3.20792 4.4243 3.09314 4.35885 2.9959 4.27159C2.89865 4.18434 2.82119 4.0773 2.7687 3.95765C2.71621 3.838 2.68992 3.70852 2.69157 3.57788C2.69157 3.0183 3.11125 2.65649 3.7609 2.65649C3.89193 2.63902 4.02517 2.64983 4.15167 2.6882C4.27816 2.72656 4.39496 2.79159 4.49421 2.8789C4.59345 2.96621 4.67283 3.07377 4.72701 3.19434C4.78118 3.31491 4.80889 3.44569 4.80826 3.57788C4.80826 4.13744 4.38859 4.49924 3.73966 4.49924Z" fill="#37352F"/>
</svg>

<svg xmlns="http://www.w3.org/2000/svg" width="18" height="18" fill="none" xmlns:v="https://vecta.io/nano"><path fill="#fff" d="M0 0h18v18H0z"/><path d="M13.125 6.749c-.671 0-1.332.166-1.924.483a.75.75 0 0 0-.701-.483h-3a.75.75 0 0 0-.53.22.75.75 0 0 0-.22.53v9a.75.75 0 0 0 .22.531.75.75 0 0 0 .53.22h3a.75.75 0 0 0 .531-.22.75.75 0 0 0 .22-.53v-4.125a.75.75 0 0 1 .75-.75.75.75 0 0 1 .75.75v4.125a.75.75 0 0 0 .22.531.75.75 0 0 0 .53.22h3a.75.75 0 0 0 .531-.22.75.75 0 0 0 .22-.53v-5.625a4.13 4.13 0 0 0-4.125-4.125zm2.625 9h-1.5v-3.375a2.25 2.25 0 0 0-2.25-2.25 2.25 2.25 0 0 0-2.25 2.25v3.375h-1.5v-7.5h1.5v.527a.75.75 0 0 0 .502.708.75.75 0 0 0 .834-.239 2.61 2.61 0 0 1 2.913-.85 2.61 2.61 0 0 1 1.751 2.479v4.875zm-10.5-9h-3a.75.75 0 0 0-.53.22.75.75 0 0 0-.22.53v9a.75.75 0 0 0 .22.531.75.75 0 0 0 .53.22h3a.75.75 0 0 0 .53-.22.75.75 0 0 0 .22-.53v-9a.75.75 0 0 0-.22-.53.75.75 0 0 0-.53-.22zm-.75 9H3v-7.5h1.5v7.5zM3.761 1.156c-.328-.02-.657.028-.966.139s-.593.285-.833.509-.433.495-.565.796-.202.626-.205.955.061.655.188.958.314.578.551.806.517.407.824.524.635.17.964.156h.021c.329.02.659-.028.969-.14s.594-.286.834-.512.432-.498.564-.8.2-.628.202-.958-.064-.656-.193-.96-.319-.577-.557-.805-.521-.404-.83-.519-.638-.166-.967-.149zM3.74 4.499h-.021c-.13.016-.261.004-.386-.036s-.239-.105-.337-.192-.175-.194-.227-.314-.079-.249-.077-.38c0-.56.42-.921 1.069-.921.131-.017.264-.007.391.032s.243.103.343.191.179.195.233.315.082.251.081.384c0 .56-.42.921-1.069.921z" fill="#37352f"/></svg>
